dist/svg/view-off.svg

<svg width="16" height="16" viewBox="0 0 16 16" fill="rgb(34, 34, 34)" xmlns="http://www.w3.org/2000/svg"><title>view-off</title><path d="M9.7 11.8L10.5 12.6C9.7 12.9 8.8 13 8 13C3.1 13 0.3 8.49999 0.2 8.29999L0 7.99999L0.2 7.69999C0.9 6.59999 1.8 5.69999 2.8 4.89999L3.5 5.59999C2.6 6.29999 1.8 7.09999 1.2 7.99999C1.9 8.89999 4.3 12 8 12C8.6 12 9.1 11.9 9.7 11.8ZM12.4 11.7L14.7 14L14 14.7L1.3 1.99999L2 1.29999L4.5 3.79999C5.6 3.29999 6.8 2.99999 8 2.99999C12.8 2.99999 15.7 7.49999 15.8 7.69999L16 7.99999L15.8 8.29999C14.9 9.59999 13.8 10.8 12.4 11.7ZM6.2 5.49999L7.6 6.89999C7.8 6.59999 8 6.29999 8 5.99999C8 5.39999 7.6 4.99999 7 4.99999C6.7 4.99999 6.4 5.19999 6.2 5.49999ZM14.8 7.99999C13.9 6.79999 12.7 5.69999 11.4 4.89999C12.4 6.49999 12.1 8.69999 10.7 9.89999L11.7 10.9C12.9 10.2 14 9.19999 14.8 7.99999ZM8.8 10.9L4.1 6.19999C4 6.49999 4 6.69999 4 6.99999C4 9.19999 5.8 11 8 11C8.3 11 8.5 11 8.8 10.9Z" fill="rgb(34, 34, 34)" fill-opacity="1.00"/></svg>

<!-- Generated by Trend Micro Style Portal -->
<svg version="1.1" xmlns="http://www.w3.org/2000/svg" width="16" height="16" viewBox="0 0 16 16">
  <title>view-off</title>
  <path fill="rgb(34,34,34)" d="M9.7 11.8l0.8 0.8c-0.8 0.3-1.7 0.4-2.5 0.4-4.9 0-7.7-4.5-7.8-4.7l-0.2-0.3 0.2-0.3c0.7-1.1 1.6-2 2.6-2.8l0.7 0.7c-0.9 0.7-1.7 1.5-2.3 2.4 0.7 0.9 3.1 4 6.8 4 0.6 0 1.1-0.1 1.7-0.2zM12.4 11.7l2.3 2.3-0.7 0.7-12.7-12.7 0.7-0.7 2.5 2.5c1.1-0.5 2.3-0.8 3.5-0.8 4.8 0 7.7 4.5 7.8 4.7l0.2 0.3-0.2 0.3c-0.9 1.3-2 2.5-3.4 3.4zM6.2 5.5l1.4 1.4c0.2-0.3 0.4-0.6 0.4-0.9 0-0.6-0.4-1-1-1 0 0 0 0 0 0-0.3 0-0.6 0.2-0.8 0.5v0zM14.8 8c-0.9-1.2-2.1-2.3-3.4-3.1 1 1.6 0.7 3.8-0.7 5l1 1c1.2-0.7 2.3-1.7 3.1-2.9zM8.8 10.9l-4.7-4.7c-0.1 0.3-0.1 0.5-0.1 0.8 0 2.2 1.8 4 4 4 0.3 0 0.5 0 0.8-0.1z"></path>
</svg>
